X:19
T:The Black Haired Lass
R:reel
C:traditional
O:Irish
D:Michael Coleman, 1891-1945; Packie Dolan, The Forgotten Fiddler (Viva Voce)
S:Silver Apple News,1994
N:Contacts ...
N:..... Cranford Publications <http://www.cranfordpub.com>
N: ..... Harry Bradshaw, Dublin
Z:This abc transcription is for personal use only,
Z:provided this notice remains attached.
Z:Paul Stewart Cranford 
Q:300
L:1/8
M:C|
K:Ador
AB|cBAB cdec|d2 gd BGG2|cBAB cdeg|(3fgf ec A2:|!
AB|cdef gfeg|fddf gfed|cdef gfeg|(3fgf ec A2 A2|!
(3(Bcd) ef gfeg|fddf g2 fg|(3(agf (3gfe) fdec|dfec A2|]!
